X: 06015
T: DICKY'S MARCH
C: Bob McQuillen 26 March 82
B: Bob's Note Book 6 #15
%R: march
Z: 2021 John Chambers <jc:trillian.mit.edu>
M: C
L: 1/4
K: D	% and Bm
A de \
| f>e df | e>d cB | A>F A>d | B A2 d | c>d ef | ge c>b | ba ag | fA de |
| f>e df | e>d cB | A>F A>d | B A2 d | dB/B/ Bd | dA/A/ A>g | fe dc | d |]
[| F Bc \
| d>c B>d | cf ff/e/ | dB/A/ Bd/B/ | AF FA | B>c d>B | AF ED/E/ | F<B B>A | Bc de |
| f2 ef/e/ | dA Ad/e/ | f2 e f/e/ | dB Bd/e/ | f2 ef/e/ | dA B<d | AF EF/E/ | D |]
%%begintext align
%% Dicky Georgy hails
%% from Concord, N.H., and he seldom misses a dance. You
%% should hear him "Balance your partner"! See you at the
%% next one, Dicky!
%%endtext

%%sep 1 1 500

%%sep 1 1 500

